images/icon-sparkle.svg

<svg width="16" height="17" viewBox="0 0 16 17" fill="none" xmlns="http://www.w3.org/2000/svg">
<path d="M14.0915 7.74867L12.2742 7.22934C11.4558 6.99861 10.7103 6.56172 10.109 5.96047C9.50777 5.35922 9.07088 4.61373 8.84015 3.79534L8.32082 1.97801C8.2947 1.91442 8.25027 1.86004 8.19318 1.82177C8.13608 1.7835 8.06889 1.76306 8.00015 1.76306C7.93142 1.76306 7.86423 1.7835 7.80713 1.82177C7.75004 1.86004 7.70561 1.91442 7.67949 1.97801L7.16015 3.79534C6.92943 4.61373 6.49254 5.35922 5.89129 5.96047C5.29004 6.56172 4.54455 6.99861 3.72615 7.22934L1.90882 7.74867C1.83904 7.76848 1.77763 7.81051 1.7339 7.86838C1.69016 7.92625 1.6665 7.9968 1.6665 8.06934C1.6665 8.14188 1.69016 8.21243 1.7339 8.2703C1.77763 8.32817 1.83904 8.3702 1.90882 8.39001L3.72615 8.90934C4.54455 9.14007 5.29004 9.57696 5.89129 10.1782C6.49254 10.7795 6.92943 11.5249 7.16015 12.3433L7.67949 14.1607C7.69929 14.2305 7.74132 14.2919 7.79919 14.3356C7.85706 14.3793 7.92762 14.403 8.00015 14.403C8.07269 14.403 8.14325 14.3793 8.20112 14.3356C8.25899 14.2919 8.30101 14.2305 8.32082 14.1607L8.84015 12.3433C9.07088 11.5249 9.50777 10.7795 10.109 10.1782C10.7103 9.57696 11.4558 9.14007 12.2742 8.90934L14.0915 8.39001C14.1613 8.3702 14.2227 8.32817 14.2664 8.2703C14.3101 8.21243 14.3338 8.14188 14.3338 8.06934C14.3338 7.9968 14.3101 7.92625 14.2664 7.86838C14.2227 7.81051 14.1613 7.76848 14.0915 7.74867Z" fill="#A03028"/>
</svg>

<?xml version="1.0" encoding="UTF-8"?>
<svg id="Layer_1" xmlns="http://www.w3.org/2000/svg" version="1.1" viewBox="0 0 16 17">
  <!-- Generator: Adobe Illustrator 30.1.0, SVG Export Plug-In . SVG Version: 2.1.1 Build 136)  -->
  <defs>
    <style>
      .st0 {
        fill: #22b5ff;
      }
    </style>
  </defs>
  <path class="st0" d="M14.09,7.75l-1.82-.52c-.82-.23-1.56-.67-2.17-1.27-.6-.6-1.04-1.35-1.27-2.17l-.52-1.82c-.03-.06-.07-.12-.13-.16-.06-.04-.12-.06-.19-.06s-.14.02-.19.06c-.06.04-.1.09-.13.16l-.52,1.82c-.23.82-.67,1.56-1.27,2.17-.6.6-1.35,1.04-2.17,1.27l-1.82.52c-.07.02-.13.06-.17.12-.04.06-.07.13-.07.2s.02.14.07.2c.04.06.11.1.17.12l1.82.52c.82.23,1.56.67,2.17,1.27.6.6,1.04,1.35,1.27,2.17l.52,1.82c.02.07.06.13.12.17s.13.07.2.07.14-.02.2-.07.1-.11.12-.17l.52-1.82c.23-.82.67-1.56,1.27-2.17.6-.6,1.35-1.04,2.17-1.27l1.82-.52c.07-.02.13-.06.17-.12.04-.06.07-.13.07-.2s-.02-.14-.07-.2c-.04-.06-.11-.1-.17-.12Z"/>
</svg>
